X: 7
T: The Night Before Larry Was Stretched
R: slip jig
M: 9/8
L: 1/8
K: Amin
|:cBA AEA A2 c|BAG GDG Bcd|cBA AF/G/A A2 c|Bcd dec BAG|
cBA AEA A2 c|BAG D3 Bcd|cBA AEA A2 c|Bcd dec BAG||
|:cde e=fe g3|cde e=fg =fdB|cde e=fe g3|=fed dec BAG|
cde e=fe g2e|cde e=fg =fdB|cde e=fe g2e|=fed dec BAG||


Tune 4712	Setting 26147

